X:277
T:Lonesome Fiddle Blues
C:Vasser Clements
N:Arrangement by Mike Stangeland
R:bluegrass
L:1/8
Q:1/4=235
M:4/4
K:F
z6 A,C | "Dm"D2 DE F2 FG | AG AB AG F2 | "C"C=B, CD ED EF | GA GF EC DE | "Dm"DC DE F2 FG | 
AG AB AG A_d | "Dm"d_d =df "C"cA c2 | "A7"AG EF "Dm"D2 A,C | "Dm"DC DE FE FG | 
AG AB AG FE | "C"C=B, CD ED EF | GA GF EC DE | "Dm"DC DE FE FG | Ac d_d =dc fe | 
"Dm"dc dA "C"cA GE | "A7"GE CE "Dm"D2 =B,A, | "G"G,2 G,A, =B,A, B,C | DE DC =B,A, G,B, | 
"D"D_D =DE _GE G=G | A=B AG _GE DG | "E"E2 E_G _AG A=A | =BA B_d =d_d B2 | "A"A_A =A=B _dB d=d | 
"A7"ef ed c=B A_d | "Dm"d_d =de fe fg | ag fa gf ed | "C"c=B cd ed ef | gf ga gf e2 | 
"Dm"d_d =de fe fg | ag fe dc Af | "Dm"ed cA "C"GF EF | "A7"ED CE "Dm"D2 f_a | 
"Dm"af dA fd AF | dA FD EG A=B | "C"cG EG A=B cd | ec Ac de f_a | "Dm"a2 _a2 =a2 _a2 | 
_a=a aa _a=a aa | "Dm"fe dc "C"AF G_A | "A7"AG EC "Dm"[A4D4] | "Dm"DF G_A =A_A GF | 
DF G_A =A_A GF | "C"CD EF GF ED | CD EF GA c_d | "Dm"d_d =de fe de | fg _ag fe dc | 
"Dm"AF ED "C"CD ED | "A7"FG EF "Dm"D4 | "G"[gc][gd] [gd][gd] [gc][gd] [gd][gd] | 
dc =Bc BA G2 | "D"_G[dG] [dG][dG] [e=G][eG] [eG][eG] | [fA][fA] [fA][fA] [_gA][gA] [g2A2] | 
"E"[ee=B][eeB] [eeB][eeB] z2 E_G | _A=A =B_d =de _g_a | "A"ae _dA ed AG | "A7"_dA GE AG E_D | 
"Dm"D_D =DE FE FG | AG AB AG F2 | "C"C=B, A,B, CD EF | GA GF EC DE | "Dm"DC DE F2 FG | 
AG AB AG A_d | "Dm"d_d =dA "C"cA cd | "A7"AG EF "Dm"D4 | 


